docs/assets/images/m_navbar.svg

<svg width="234" height="58" viewBox="0 0 234 58" fill="none" xmlns="http://www.w3.org/2000/svg">
<rect width="234" height="58" fill="white"/>
<path d="M17 23.6667H29V25H17V23.6667ZM17 28.3334H29V29.6667H17V28.3334ZM17 33H29V34.3334H17V33Z" fill="#656A91"/>
<path d="M84.3002 23.6214V25.8429H87.1327L84 30.2672V31.137H91.016V28.734H87.8832L90.8724 24.5663V23.6214H84.3002ZM92.1907 31.137V23.6151H95.1342V31.1308L92.1907 31.137ZM104.754 31.137V26.9693C104.754 24.291 103.338 23.4587 101.68 23.4399C100.851 23.4274 99.8658 23.6965 99.2001 24.4411L99.0696 23.6214H96.4721V31.137H99.3698V27.1821C99.3698 26.1933 100.022 25.7365 100.721 25.7365C101.263 25.7365 101.817 26.0557 101.817 26.9818V31.137H104.754ZM105.877 31.6689C105.72 33.9656 107.293 35.3673 110.112 35.3673C112.358 35.3673 114.57 34.4537 114.57 32.0194C114.57 31.6064 114.472 30.5425 113.023 29.754C113.93 29.1283 114.439 28.2021 114.453 27.2572C114.492 26.5125 114.224 25.7866 113.702 25.2359L114.727 24.0782L112.612 22.6326C112.358 22.9518 112.038 23.3335 111.77 23.6652C111.248 23.4774 110.7 23.3836 110.145 23.3773C107.711 23.3773 105.766 24.8667 105.766 27.2259C105.766 29.5538 107.502 31.0119 110.145 31.0119C111.209 31.0119 111.561 31.4687 111.561 32.0131C111.561 32.7453 110.876 33.0957 110.112 33.0957C109.336 33.0957 108.598 32.8392 108.631 31.6689H105.877ZM110.145 25.6739C111.007 25.6739 111.627 26.3748 111.627 27.2259C111.627 28.2271 110.928 28.7027 110.145 28.7027C109.284 28.7027 108.618 28.127 108.618 27.2259C108.618 26.2184 109.284 25.6739 110.145 25.6739ZM119.354 31.6689C119.197 33.9656 120.77 35.3673 123.59 35.3673C125.835 35.3673 128.047 34.4537 128.047 32.0194C128.047 31.6064 127.949 30.5425 126.5 29.754C127.408 29.1283 127.917 28.2021 127.93 27.2572C127.969 26.5125 127.701 25.7866 127.179 25.2359L128.197 24.0782L126.089 22.6326C125.835 22.9518 125.515 23.3335 125.247 23.6652C124.725 23.4774 124.177 23.3836 123.622 23.3773C121.188 23.3773 119.243 24.8667 119.243 27.2259C119.243 29.5538 120.979 31.0119 123.622 31.0119C124.686 31.0119 125.038 31.4687 125.038 32.0131C125.038 32.7453 124.353 33.0957 123.59 33.0957C122.806 33.0957 122.075 32.8392 122.108 31.6689H119.354ZM123.622 25.6739C124.484 25.6739 125.104 26.3748 125.104 27.2259C125.104 28.2271 124.405 28.7027 123.622 28.7027C122.761 28.7027 122.095 28.127 122.095 27.2259C122.088 26.2184 122.761 25.6739 123.622 25.6739ZM129.157 31.6689C129 33.9656 130.573 35.3673 133.392 35.3673C135.637 35.3673 137.85 34.4537 137.85 32.0194C137.85 31.6064 137.752 30.5425 136.303 29.754C137.21 29.1283 137.719 28.2021 137.732 27.2572C137.772 26.5125 137.504 25.7866 136.982 25.2359L138 24.0782L135.892 22.6326C135.637 22.9518 135.318 23.3335 135.05 23.6652C134.528 23.4774 133.98 23.3836 133.425 23.3773C130.991 23.3773 129.046 24.8667 129.046 27.2259C129.046 29.5538 130.782 31.0119 133.425 31.0119C134.489 31.0119 134.841 31.4687 134.841 32.0131C134.841 32.7453 134.156 33.0957 133.392 33.0957C132.609 33.0957 131.878 32.8392 131.911 31.6689H129.157ZM133.425 25.6739C134.286 25.6739 134.906 26.3748 134.906 27.2259C134.906 28.2271 134.208 28.7027 133.425 28.7027C132.563 28.7027 131.898 28.127 131.898 27.2259C131.898 26.2184 132.563 25.6739 133.425 25.6739Z" fill="#32375E"/>
<path d="M116.858 26.1571C117.228 26.1571 117.466 26.2879 117.614 26.4521C117.771 26.6247 117.858 26.8673 117.858 27.1254C117.857 27.3834 117.768 27.6271 117.611 27.8006C117.461 27.9657 117.224 28.0959 116.858 28.0959C116.504 28.0959 116.272 27.9678 116.123 27.8025C115.967 27.6285 115.878 27.3834 115.876 27.1237C115.875 26.8641 115.961 26.6214 116.115 26.4497C116.26 26.2869 116.493 26.1571 116.858 26.1571Z" fill="#3F7BDA" stroke="#3F7BDA"/>
<rect x="191" y="15" width="28" height="28" rx="4" fill="#F0F5F9"/>
<path d="M204.333 28.3333V25.6666H205.667V28.3333H208.333V29.6666H205.667V32.3333H204.333V29.6666H201.667V28.3333H204.333ZM205 35.6666C201.318 35.6666 198.333 32.682 198.333 29C198.333 25.318 201.318 22.3333 205 22.3333C208.682 22.3333 211.667 25.318 211.667 29C211.667 32.682 208.682 35.6666 205 35.6666ZM205 34.3333C206.414 34.3333 207.771 33.7714 208.771 32.7712C209.771 31.771 210.333 30.4145 210.333 29C210.333 27.5855 209.771 26.2289 208.771 25.2287C207.771 24.2285 206.414 23.6666 205 23.6666C203.585 23.6666 202.229 24.2285 201.229 25.2287C200.228 26.2289 199.667 27.5855 199.667 29C199.667 30.4145 200.228 31.771 201.229 32.7712C202.229 33.7714 203.585 34.3333 205 34.3333V34.3333Z" fill="#3F7BDA"/>
</svg>

<svg xmlns="http://www.w3.org/2000/svg" fill="none" viewBox="0 0 234 58"><path fill="#fff" d="M0 0H234V58H0z"/><path fill="#656A91" d="M17 23.667h12V25H17v-1.333zm0 4.666h12v1.334H17v-1.334zM17 33h12v1.333H17V33z"/><path fill="#32375E" d="M84.3 23.621v2.222h2.833L84 30.267v.87h7.016v-2.403h-3.133l2.99-4.168v-.945H84.3zm7.89 7.516v-7.522h2.944v7.516l-2.943.006zm12.564 0v-4.168c0-2.678-1.416-3.51-3.074-3.53-.829-.012-1.814.258-2.48 1.002l-.13-.82h-2.598v7.516h2.898v-3.955c0-.989.652-1.445 1.351-1.445.542 0 1.096.319 1.096 1.245v4.155h2.937zm1.123.532c-.157 2.297 1.416 3.698 4.235 3.698 2.246 0 4.458-.913 4.458-3.348 0-.413-.098-1.476-1.547-2.265.907-.626 1.416-1.552 1.43-2.497a2.723 2.723 0 0 0-.751-2.021l1.025-1.158-2.115-1.445c-.254.319-.574.7-.842 1.032a4.956 4.956 0 0 0-1.625-.288c-2.434 0-4.379 1.49-4.379 3.849 0 2.328 1.736 3.786 4.379 3.786 1.064 0 1.416.457 1.416 1.001 0 .732-.685 1.083-1.449 1.083-.776 0-1.514-.257-1.481-1.427h-2.754zm4.268-5.995c.862 0 1.482.7 1.482 1.552 0 1.001-.699 1.477-1.482 1.477-.861 0-1.527-.576-1.527-1.477 0-1.008.666-1.552 1.527-1.552zm9.209 5.995c-.157 2.297 1.416 3.698 4.236 3.698 2.245 0 4.457-.913 4.457-3.348 0-.413-.098-1.476-1.547-2.265.908-.626 1.417-1.552 1.43-2.497a2.723 2.723 0 0 0-.751-2.021l1.018-1.158-2.108-1.445c-.254.319-.574.7-.842 1.032a4.956 4.956 0 0 0-1.625-.288c-2.434 0-4.379 1.49-4.379 3.849 0 2.328 1.736 3.786 4.379 3.786 1.064 0 1.416.457 1.416 1.001 0 .732-.685 1.083-1.448 1.083-.784 0-1.515-.257-1.482-1.427h-2.754zm4.268-5.995c.862 0 1.482.7 1.482 1.552 0 1.001-.699 1.477-1.482 1.477-.861 0-1.527-.576-1.527-1.477-.007-1.008.666-1.552 1.527-1.552zm5.535 5.995c-.157 2.297 1.416 3.698 4.235 3.698 2.245 0 4.458-.913 4.458-3.348 0-.413-.098-1.476-1.547-2.265.907-.626 1.416-1.552 1.429-2.497a2.718 2.718 0 0 0-.75-2.021L138 24.078l-2.108-1.445c-.255.319-.574.7-.842 1.032a4.956 4.956 0 0 0-1.625-.288c-2.434 0-4.379 1.49-4.379 3.849 0 2.328 1.736 3.786 4.379 3.786 1.064 0 1.416.457 1.416 1.001 0 .732-.685 1.083-1.449 1.083-.783 0-1.514-.257-1.481-1.427h-2.754zm4.268-5.995c.861 0 1.481.7 1.481 1.552 0 1.001-.698 1.477-1.481 1.477-.862 0-1.527-.576-1.527-1.477 0-1.008.665-1.552 1.527-1.552z"/><path fill="#3F7BDA" stroke="#3F7BDA" d="M116.858 26.157c.37 0 .608.13.756.295a1 1 0 0 1 .244.673c-.001.258-.09.502-.247.676-.15.165-.387.295-.753.295-.354 0-.586-.128-.735-.294a1.031 1.031 0 0 1-.247-.678c-.001-.26.085-.503.239-.674.145-.163.378-.293.743-.293z"/><rect width="28" height="28" x="191" y="15" fill="#F0F5F9" rx="4"/><path fill="#3F7BDA" d="M204.333 28.333v-2.666h1.334v2.666h2.666v1.334h-2.666v2.666h-1.334v-2.666h-2.666v-1.334h2.666zm.667 7.334a6.667 6.667 0 1 1 0-13.334 6.667 6.667 0 0 1 0 13.334zm0-1.334a5.333 5.333 0 1 0 0-10.666 5.333 5.333 0 0 0 0 10.666z"/></svg>
